packages/icons/svg/Outline/cube.svg

<svg width="24" height="24" viewBox="0 0 24 24" fill="none" xmlns="http://www.w3.org/2000/svg">
<g id="Icon/Outline/cube">
<path id="Mask" fill-rule="evenodd" clip-rule="evenodd" d="M18.6903 15.9629L13.0003 18.6069V11.8909L19.0003 9.1039V15.5389C19.0003 15.7129 18.8823 15.8749 18.6903 15.9629ZM5.30333 15.9639C5.11433 15.8759 4.99833 15.7139 5.00033 15.5319V9.1039L11.0003 11.8909V18.6089L5.30333 15.9639ZM11.7073 5.0639C11.7983 5.0209 11.8993 4.9999 12.0003 4.9999C12.1003 4.9999 12.2013 5.0209 12.2923 5.0639L17.6213 7.5379L12.0003 10.1499L6.37833 7.5379L11.7073 5.0639ZM20.6563 7.2589C20.6533 7.2509 20.6543 7.2419 20.6503 7.2339C20.6473 7.2259 20.6393 7.2209 20.6343 7.2129C20.5883 7.1369 20.5323 7.0699 20.4793 6.9999C20.4483 6.9659 20.4233 6.9279 20.3893 6.8989C20.1543 6.6229 19.8773 6.3799 19.5333 6.2209L13.1333 3.2479C13.1323 3.2479 13.1313 3.2479 13.1313 3.2469C12.4123 2.9149 11.5873 2.9159 10.8663 3.2479L4.46933 6.2199C4.12533 6.3789 3.84733 6.6209 3.61233 6.8969C3.57533 6.9279 3.54833 6.9699 3.51533 7.0069C3.46333 7.0739 3.41033 7.1389 3.36633 7.2109C3.36133 7.2199 3.35333 7.2259 3.34933 7.2339C3.34533 7.2429 3.34633 7.2519 3.34233 7.2609C3.13133 7.6229 3.00033 8.0299 3.00033 8.4579V15.5249C2.99233 16.4749 3.56433 17.3589 4.45833 17.7769L10.8573 20.7489C11.2193 20.9179 11.6073 21.0019 11.9963 21.0019C12.3843 21.0019 12.7723 20.9179 13.1333 20.7499L19.5303 17.7779C20.4223 17.3659 20.9993 16.4879 21.0003 15.5399V8.4569C20.9993 8.0289 20.8683 7.6219 20.6563 7.2589Z" fill="#000000"/>
</g>
</svg>

<svg fill="none" height="24" viewBox="0 0 24 24" width="24" xmlns="http://www.w3.org/2000/svg"><path clip-rule="evenodd" d="m18.6904 15.963-5.69 2.644v-6.716l6-2.78696v6.43496c0 .174-.118.336-.31.424zm-13.387.001c-.18899-.088-.30499-.25-.30299-.432v-6.42796l5.99999 2.78696v6.718zm6.4039-10.90003c.091-.043.192-.064.293-.064.1 0 .201.021.292.064l5.329 2.474-5.621 2.61203-5.62195-2.61203zm8.9491 2.19507c-.003-.008-.002-.017-.006-.025-.003-.008-.011-.013-.016-.021-.046-.076-.102-.143-.155-.213-.031-.034-.056-.072-.09-.101-.235-.276-.512-.519-.856-.678l-6.4-2.973c-.001 0-.002 0-.002-.001-.719-.332-1.544-.331-2.265.001l-6.39701 2.972c-.344.159-.622.401-.857.677-.037.031-.064.073-.097.11-.052.067-.105.132-.149.204-.005.009-.013.015-.017.023-.004.009-.003.018-.007.027-.211.362-.342.769-.342 1.197v7.06696c-.008.95.564 1.834 1.458 2.252l6.39901 2.972c.362.169.75.253 1.139.253.388 0 .776-.084 1.137-.252l6.397-2.972c.892-.412 1.469-1.29 1.47-2.238v-7.08296c-.001-.428-.132-.835-.344-1.198z" fill="#6b7280" fill-rule="evenodd"/></svg>
